<?xml version="1.0" encoding="UTF-8"?>
<map version="1.10" tiledversion="1.10.2" orientation="orthogonal" renderorder="right-down" width="30" height="20" tilewidth="16" tileheight="16" infinite="1" nextlayerid="5" nextobjectid="1">
 <tileset firstgid="1" source="tileset.tsx"/>
 <layer id="3" name="Background" width="30" height="20">
  <data encoding="csv">
   <chunk x="-32" y="-32" width="16" height="16">
0,0,0,0,0,0,0,0,0,0,0,0,0,0,0,0,
0,0,0,0,0,0,0,0,0,0,0,0,0,0,0,0,
0,0,0,0,0,0,0,0,0,0,0,0,0,0,0,0,
0,0,0,0,0,0,0,0,0,0,0,0,0,0,0,0,
0,0,0,0,0,0,0,0,0,0,0,0,0,0,0,0,
0,0,0,0,0,0,0,0,0,0,0,0,0,0,0,0,
0,0,0,0,0,0,0,0,0,0,0,0,0,0,0,0,
0,0,0,0,0,0,0,0,0,0,0,0,0,0,0,0,
0,0,0,0,0,0,0,0,0,0,0,0,0,0,0,0,
0,0,0,0,0,0,0,0,0,0,0,0,0,0,0,0,
0,0,0,0,0,0,0,0,0,0,0,0,0,0,0,0,
0,0,0,0,0,0,0,0,0,0,0,0,0,0,0,0,
0,0,0,0,0,0,0,0,0,0,0,0,0,0,0,0,
0,0,0,0,0,0,0,0,0,0,0,0,0,0,0,0,
0,0,0,0,0,0,0,2825,2825,2825,2825,2825,2825,2825,2825,2825,
0,0,0,0,0,0,0,2825,2825,2825,2825,2825,2825,2825,2825,2825
</chunk>
   <chunk x="-16" y="-32" width="16" height="16">
0,0,0,0,0,0,0,0,0,0,0,0,0,0,0,0,
0,0,0,0,0,0,0,0,0,0,0,0,0,0,0,0,
0,0,0,0,0,0,0,0,0,0,0,0,0,0,0,0,
0,0,0,0,0,0,0,0,0,0,0,0,0,0,0,0,
0,0,0,0,0,0,0,0,0,0,0,0,0,0,0,0,
0,0,0,0,0,0,0,0,0,0,0,0,0,0,0,0,
0,0,0,0,0,0,0,0,0,0,0,0,0,0,0,0,
0,0,0,0,0,0,0,0,0,0,0,0,0,0,0,0,
0,0,0,0,0,0,0,0,0,0,0,0,0,0,0,0,
0,0,0,0,0,0,0,0,0,0,0,0,0,0,0,0,
0,0,0,0,0,0,0,0,0,0,0,0,0,0,0,0,
0,0,0,0,0,0,0,0,0,0,0,0,0,0,0,0,
0,0,0,0,0,0,0,0,0,0,0,0,0,0,0,0,
0,0,0,0,0,0,0,0,0,0,0,0,0,0,0,0,
2825,2825,2825,2825,2825,2825,2866,2866,2866,2866,2866,2866,2866,2866,2866,2866,
2825,2825,2825,2825,2825,2866,2866,2866,2866,2866,2866,2866,2866,2866,2866,2866
</chunk>
   <chunk x="0" y="-32" width="16" height="16">
0,0,0,0,0,0,0,0,0,0,0,0,0,0,0,0,
0,0,0,0,0,0,0,0,0,0,0,0,0,0,0,0,
0,0,0,0,0,0,0,0,0,0,0,0,0,0,0,0,
0,0,0,0,0,0,0,0,0,0,0,0,0,0,0,0,
0,0,0,0,0,0,0,0,0,0,0,0,0,0,0,0,
0,0,0,0,0,0,0,0,0,0,0,0,0,0,0,0,
0,0,0,0,0,0,0,0,0,0,0,0,0,0,0,0,
0,0,0,0,0,0,0,0,0,0,0,0,0,0,0,0,
0,0,0,0,0,0,0,0,0,0,0,0,0,0,0,0,
0,0,0,0,0,0,0,0,0,0,0,0,0,0,0,0,
0,0,0,0,0,0,0,0,0,0,0,0,0,0,0,0,
0,0,0,0,0,0,0,0,0,0,0,0,0,0,0,0,
0,0,0,0,0,0,0,0,0,0,0,0,0,0,0,0,
0,0,0,0,0,0,0,0,0,0,0,0,0,0,0,0,
2866,2866,2866,2866,2866,2866,2866,2866,2866,2866,2866,0,0,0,0,0,
2866,2866,2866,2866,2866,2866,2866,2866,2866,2866,2866,0,0,0,0,0
</chunk>
   <chunk x="-32" y="-16" width="16" height="16">
0,0,0,0,0,0,0,2825,2825,2825,2825,2825,2825,2825,2825,2825,
0,0,0,0,0,0,0,2825,2825,2825,2825,2866,2866,2866,2866,2866,
0,0,0,0,0,0,0,2825,2866,2866,2866,2866,2866,2866,2866,2866,
0,0,0,0,0,0,0,2825,2866,2866,2866,2866,2866,2866,2866,2866,
0,0,0,0,0,0,0,2825,2866,2866,2866,2866,2866,2866,2866,2866,
0,0,0,0,0,0,0,2825,2866,2866,2866,2866,1924,2866,2866,2866,
0,0,0,0,0,0,0,2825,2866,2866,2866,2866,2866,2866,2866,2866,
0,0,0,0,0,0,0,2825,2866,2866,2866,2866,2866,2019,2866,2866,
0,0,0,0,0,0,0,2825,2866,2866,2866,2866,2866,2866,2866,2866,
0,0,0,0,0,0,0,2825,2866,2866,2866,2866,2866,2866,2866,2866,
0,0,0,0,0,0,0,2866,2866,2866,2866,2866,2866,2866,2866,2866,
0,0,0,0,0,0,0,2866,2866,2866,2866,2866,2866,2866,2866,2866,
0,0,0,0,0,0,0,2825,2866,2866,2866,2866,2866,2866,2866,2866,
0,0,0,0,0,0,0,2825,2866,2866,2866,2866,2866,2866,2866,2866,
0,0,0,0,0,0,0,2825,2866,2866,2866,2866,2866,2866,2866,2866,
0,0,0,0,0,0,0,2825,2825,2825,2825,2825,2866,2866,2866,2866
</chunk>
   <chunk x="-16" y="-16" width="16" height="16">
2825,2825,2825,2825,2825,2825,2866,2866,2866,2866,2866,2866,2866,2866,2866,2866,
2866,2866,2866,2866,2866,2866,2866,2866,2866,2866,2866,2866,2866,2866,2866,1924,
2866,2866,2866,2866,2866,2866,2866,2866,2866,2866,2866,2866,2866,2866,2676,2866,
2866,2866,2866,2866,2866,2866,2866,2866,2866,2866,2866,2866,2866,2866,2018,2866,
2866,2866,2866,2866,2866,2866,1926,2866,2866,2866,2866,2866,2866,2866,2866,2866,
2866,2866,2676,2866,2866,2866,2866,2866,2866,2866,2866,2866,2866,2866,2866,2866,
1925,2866,2866,2866,2866,2866,2866,2866,2866,2866,2866,2866,2866,2866,2866,2866,
2114,2866,2866,2866,2866,2866,2866,2866,2866,2866,2112,2866,2866,2866,2866,2866,
2866,2866,2866,2866,2866,2866,2866,2866,2866,2866,2866,2866,2866,2866,2866,2866,
2866,2866,2866,2866,2018,2866,2866,2866,2866,2866,2019,2866,2866,2866,2866,2866,
2866,2866,2866,2866,2866,2866,2866,2866,2866,2866,2866,2866,2020,2866,2866,2866,
2866,2866,2866,2866,2866,2866,2866,2866,2866,2866,2866,2866,2866,2866,2866,2866,
2866,2866,2866,2866,2866,2866,2866,2866,2207,2866,2866,2866,2866,2866,2866,2866,
2866,2866,2866,2208,2866,2866,2866,2866,2866,2866,2866,2866,2866,2866,2866,2866,
2866,2866,2866,2866,2866,2866,2866,2866,2866,2866,2866,2866,2866,2866,2866,2866,
2866,2866,2866,2866,399,2866,399,399,2866,2866,399,2866,2866,2866,2866,2866
</chunk>
   <chunk x="0" y="-16" width="16" height="16">
2866,2866,2866,2866,2866,2866,2866,2866,2866,2866,2866,0,0,0,0,0,
2866,2866,2866,2866,2866,2866,2866,2866,2866,2866,2866,0,0,0,0,0,
2866,2866,2866,2866,2866,2866,2114,2866,2866,2866,2866,0,0,0,0,0,
2866,2866,2678,2866,2866,2866,2866,2866,2866,2866,2866,0,0,0,0,0,
2866,2866,2866,2866,2866,2866,2866,2866,2866,2866,2866,0,0,0,0,0,
2866,2866,2866,2866,2866,2866,2866,2866,2866,2866,2866,0,0,0,0,0,
2866,2866,2772,2866,2866,2866,2866,2866,2866,2866,2866,0,0,0,0,0,
2866,2866,2866,2866,2866,2866,2866,2866,2866,2866,2866,0,0,0,0,0,
2677,2866,2866,2866,2866,2866,2866,2866,2866,2866,2866,0,0,0,0,0,
2866,2114,2866,2866,2866,2866,2866,2866,2866,2866,2866,0,0,0,0,0,
2866,2866,2866,2866,2866,2866,2866,2866,2825,2825,2825,0,0,0,0,0,
2866,2866,2866,2866,2866,2866,2866,2866,2825,2825,2825,0,0,0,0,0,
2866,2866,2114,2112,2866,2866,2866,2866,2825,2825,2825,0,0,0,0,0,
2866,2866,2208,2866,2866,2866,2866,2866,2825,2825,2825,0,0,0,0,0,
2866,2866,2866,2866,2866,2866,2866,2866,2825,2825,2825,0,0,0,0,0,
2866,2866,2866,2866,2866,2866,2866,2866,2825,2825,2825,0,0,0,0,0
</chunk>
   <chunk x="-32" y="0" width="16" height="16">
0,0,0,0,0,0,0,2825,2825,2825,2825,2825,2825,2825,2825,2866,
0,0,0,0,0,0,0,2825,2825,2825,2825,2825,2825,2825,2825,2866,
0,0,0,0,0,0,0,2825,2825,2825,2825,2825,2825,2825,2825,2866,
0,0,0,0,0,0,0,0,0,0,0,0,0,0,0,0,
0,0,0,0,0,0,0,0,0,0,0,0,0,0,0,0,
0,0,0,0,0,0,0,0,0,0,0,0,0,0,0,0,
0,0,0,0,0,0,0,0,0,0,0,0,0,0,0,0,
0,0,0,0,0,0,0,0,0,0,0,0,0,0,0,0,
0,0,0,0,0,0,0,0,0,0,0,0,0,0,0,0,
0,0,0,0,0,0,0,0,0,0,0,0,0,0,0,0,
0,0,0,0,0,0,0,0,0,0,0,0,0,0,0,0,
0,0,0,0,0,0,0,0,0,0,0,0,0,0,0,0,
0,0,0,0,0,0,0,0,0,0,0,0,0,0,0,0,
0,0,0,0,0,0,0,0,0,0,0,0,0,0,0,0,
0,0,0,0,0,0,0,0,0,0,0,0,0,0,0,0,
0,0,0,0,0,0,0,0,0,0,0,0,0,0,0,0
</chunk>
   <chunk x="-16" y="0" width="16" height="16">
2866,2866,2866,2866,2866,2866,2866,2866,2866,2866,2866,2866,2866,2866,2866,2866,
2866,2866,2866,2866,2866,2866,2866,2866,2866,2866,2866,2866,2866,2866,2866,2866,
2866,2866,2866,2866,2866,2866,2866,2866,2866,2866,2866,2866,2866,2866,2866,2866,
0,0,0,0,0,0,0,0,0,0,0,0,0,0,0,0,
0,0,0,0,0,0,0,0,0,0,0,0,0,0,0,0,
0,0,0,0,0,0,0,0,0,0,0,0,0,0,0,0,
0,0,0,0,0,0,0,0,0,0,0,0,0,0,0,0,
0,0,0,0,0,0,0,0,0,0,0,0,0,0,0,0,
0,0,0,0,0,0,0,0,0,0,0,0,0,0,0,0,
0,0,0,0,0,0,0,0,0,0,0,0,0,0,0,0,
0,0,0,0,0,0,0,0,0,0,0,0,0,0,0,0,
0,0,0,0,0,0,0,0,0,0,0,0,0,0,0,0,
0,0,0,0,0,0,0,0,0,0,0,0,0,0,0,0,
0,0,0,0,0,0,0,0,0,0,0,0,0,0,0,0,
0,0,0,0,0,0,0,0,0,0,0,0,0,0,0,0,
0,0,0,0,0,0,0,0,0,0,0,0,0,0,0,0
</chunk>
   <chunk x="0" y="0" width="16" height="16">
2866,2866,2866,2866,2866,2866,2866,2866,2825,2825,2825,0,0,0,0,0,
2866,2866,2866,2866,2866,2866,2866,2866,2825,2825,2825,0,0,0,0,0,
2866,2866,2866,2866,2866,2866,2825,2825,2825,2825,2825,0,0,0,0,0,
0,0,0,0,0,0,0,0,0,0,0,0,0,0,0,0,
0,0,0,0,0,0,0,0,0,0,0,0,0,0,0,0,
0,0,0,0,0,0,0,0,0,0,0,0,0,0,0,0,
0,0,0,0,0,0,0,0,0,0,0,0,0,0,0,0,
0,0,0,0,0,0,0,0,0,0,0,0,0,0,0,0,
0,0,0,0,0,0,0,0,0,0,0,0,0,0,0,0,
0,0,0,0,0,0,0,0,0,0,0,0,0,0,0,0,
0,0,0,0,0,0,0,0,0,0,0,0,0,0,0,0,
0,0,0,0,0,0,0,0,0,0,0,0,0,0,0,0,
0,0,0,0,0,0,0,0,0,0,0,0,0,0,0,0,
0,0,0,0,0,0,0,0,0,0,0,0,0,0,0,0,
0,0,0,0,0,0,0,0,0,0,0,0,0,0,0,0,
0,0,0,0,0,0,0,0,0,0,0,0,0,0,0,0
</chunk>
  </data>
 </layer>
 <layer id="1" name="Platforms" width="30" height="20">
  <data encoding="csv">
   <chunk x="-32" y="-32" width="16" height="16">
0,0,0,0,0,0,0,0,0,0,0,0,0,0,0,0,
0,0,0,0,0,0,0,0,0,0,0,0,0,0,0,0,
0,0,0,0,0,0,0,0,0,0,0,0,0,0,0,0,
0,0,0,0,0,0,0,0,0,0,0,0,0,0,0,0,
0,0,0,0,0,0,0,0,0,0,0,0,0,0,0,0,
0,0,0,0,0,0,0,0,0,0,0,0,0,0,0,0,
0,0,0,0,0,0,0,0,0,0,0,0,0,0,0,0,
0,0,0,0,0,0,0,0,0,0,0,0,0,0,0,0,
0,0,0,0,0,0,0,0,0,0,0,0,0,0,0,0,
0,0,0,0,0,0,0,0,0,0,0,0,0,0,0,0,
0,0,0,0,0,0,0,0,0,0,0,0,0,0,0,0,
0,0,0,0,0,0,0,0,0,0,0,0,0,0,0,0,
0,0,0,0,0,0,0,0,0,0,0,0,0,0,0,0,
0,0,0,0,0,0,0,0,0,0,0,0,0,0,0,0,
0,0,0,0,0,0,0,0,1883,0,0,0,0,2729,0,0,
0,0,0,0,0,0,0,0,0,0,0,0,0,0,0,0
</chunk>
   <chunk x="-16" y="-32" width="16" height="16">
0,0,0,0,0,0,0,0,0,0,0,0,0,0,0,0,
0,0,0,0,0,0,0,0,0,0,0,0,0,0,0,0,
0,0,0,0,0,0,0,0,0,0,0,0,0,0,0,0,
0,0,0,0,0,0,0,0,0,0,0,0,0,0,0,0,
0,0,0,0,0,0,0,0,0,0,0,0,0,0,0,0,
0,0,0,0,0,0,0,0,0,0,0,0,0,0,0,0,
0,0,0,0,0,0,0,0,0,0,0,0,0,0,0,0,
0,0,0,0,0,0,0,0,0,0,0,0,0,0,0,0,
0,0,0,0,0,0,0,0,0,0,0,0,0,0,0,0,
0,0,0,0,0,0,0,0,0,0,0,0,0,0,0,0,
0,0,0,0,0,0,0,0,0,0,0,0,0,0,0,0,
0,0,0,0,0,0,0,0,0,0,0,0,0,0,0,0,
0,0,0,0,0,0,0,0,0,0,0,0,0,0,0,0,
0,0,0,0,0,0,0,0,0,0,0,0,0,0,0,0,
0,0,0,0,0,0,2825,2825,2825,2825,2825,2636,2825,2825,2825,2825,
0,0,0,2825,1979,2825,2825,2825,2825,2825,2825,2825,2825,2825,2825,2825
</chunk>
   <chunk x="0" y="-32" width="16" height="16">
0,0,0,0,0,0,0,0,0,0,0,0,0,0,0,0,
0,0,0,0,0,0,0,0,0,0,0,0,0,0,0,0,
0,0,0,0,0,0,0,0,0,0,0,0,0,0,0,0,
0,0,0,0,0,0,0,0,0,0,0,0,0,0,0,0,
0,0,0,0,0,0,0,0,0,0,0,0,0,0,0,0,
0,0,0,0,0,0,0,0,0,0,0,0,0,0,0,0,
0,0,0,0,0,0,0,0,0,0,0,0,0,0,0,0,
0,0,0,0,0,0,0,0,0,0,0,0,0,0,0,0,
0,0,0,0,0,0,0,0,0,0,0,0,0,0,0,0,
0,0,0,0,0,0,0,0,0,0,0,0,0,0,0,0,
0,0,0,0,0,0,0,0,0,0,0,0,0,0,0,0,
0,0,0,0,0,0,0,0,0,0,0,0,0,0,0,0,
0,0,0,0,0,0,0,0,0,0,0,0,0,0,0,0,
0,0,0,0,0,0,0,0,0,0,0,0,0,0,0,0,
2825,2825,2825,1977,2825,2825,2825,2825,2825,2825,2825,0,0,0,0,0,
2825,2825,2825,2825,2825,2825,2825,2825,2825,2636,2825,0,0,0,0,0
</chunk>
   <chunk x="-32" y="-16" width="16" height="16">
0,0,0,0,0,0,0,0,0,0,0,2636,0,0,1979,0,
0,0,0,0,0,0,0,0,2637,2825,2825,2825,2825,2825,2825,2825,
0,0,0,0,0,0,0,0,2825,2825,2825,2635,2825,2825,1979,2825,
0,0,0,0,0,0,0,0,2825,2825,2452,2917,2918,2919,2917,2918,
0,0,0,0,0,0,0,2729,2825,2825,2544,0,0,0,0,0,
0,0,0,0,0,0,0,0,2825,1883,2638,0,0,0,0,0,
0,0,0,0,0,0,0,0,2730,2825,2732,0,0,0,0,0,
0,0,0,0,0,0,0,0,2825,2825,2826,0,0,0,0,0,
0,0,0,0,0,0,0,0,2825,2825,2544,0,0,0,0,0,
0,0,0,0,0,0,0,0,2825,2825,2638,0,0,0,0,0,
0,0,0,0,0,0,0,2825,1977,2825,2546,2447,2448,2449,2447,2448,
0,0,0,0,0,0,0,2825,2825,2825,2825,1885,2825,2635,2541,2542,
0,0,0,0,0,0,0,2825,2825,2825,2825,2825,2825,2825,2825,2825,
0,0,0,0,0,0,0,0,2165,2825,2823,2825,2825,2825,2824,2825,
0,0,0,0,0,0,0,0,2825,2825,2825,2825,2073,2825,2825,2825,
0,0,0,0,0,0,0,0,0,0,0,0,2825,2825,2637,2825
</chunk>
   <chunk x="-16" y="-16" width="16" height="16">
0,0,1883,2825,2825,2825,2825,2825,2825,2452,2917,2917,2917,1994,2918,2919,
2825,2825,2825,2825,2825,2825,2825,2825,2825,2638,393,393,585,2370,0,0,
2825,2825,2825,2825,2825,2073,2825,2825,2825,2732,0,0,303,2370,0,0,
2919,2917,2918,2919,2917,2918,2919,2917,2918,2920,0,0,303,2370,0,0,
0,0,0,0,0,0,0,0,0,0,0,0,303,2370,0,0,
0,0,0,0,0,0,0,0,0,0,0,0,209,2464,0,0,
0,0,0,0,0,421,0,0,0,1148,0,0,209,2370,0,0,
0,0,0,0,0,0,0,0,0,2276,0,0,303,2370,0,0,
0,0,0,0,0,0,0,2273,0,2370,0,0,863,1154,0,0,
0,0,0,0,0,0,0,0,0,2464,0,0,0,0,0,0,
2449,2447,2450,0,0,0,2269,0,0,1154,0,0,0,0,0,0,
1979,2543,2638,0,0,0,0,0,0,0,0,0,0,1987,1988,1989,
2823,2731,2732,0,0,2271,0,0,0,0,0,0,0,2081,2082,2083,
2825,2167,2826,0,0,0,0,0,0,0,0,0,2273,302,0,0,
2825,2825,2638,488,487,488,487,488,488,488,488,677,0,0,0,0,
2825,2635,2546,1789,1790,2449,2447,2448,2449,1789,1790,2449,2447,2448,2449,2447
</chunk>
   <chunk x="0" y="-16" width="16" height="16">
2917,2918,2919,2917,2917,2918,2919,2917,1795,2825,2825,0,0,0,0,0,
0,0,0,0,0,0,0,1881,1882,2825,2825,0,0,0,0,0,
0,0,0,0,0,0,0,1975,1976,2825,2825,0,0,0,0,0,
0,0,0,0,0,0,0,2069,2070,2825,2731,0,0,0,0,0,
0,0,0,0,0,0,0,2163,2164,2825,2825,0,0,0,0,0,
0,0,0,0,0,0,0,1881,1882,2825,2825,0,0,0,0,0,
0,0,0,0,0,2446,2447,2448,2547,2825,2825,0,0,0,0,0,
0,0,0,0,0,2540,2825,2825,2825,2825,2825,0,0,0,0,0,
0,0,0,0,0,2728,2166,2825,2729,2825,2825,0,0,0,0,0,
0,0,0,0,0,2916,2453,2825,2825,2825,2825,0,0,0,0,0,
0,0,0,411,0,679,2634,2825,2825,2825,2637,0,0,0,0,0,
1990,1991,0,0,0,2446,2547,2825,2825,2825,0,0,0,0,0,0,
2084,2085,0,0,0,2540,2825,2825,2636,2825,0,0,0,0,0,0,
0,0,0,0,0,2634,2167,2825,2825,2825,0,0,0,0,0,0,
0,0,0,0,0,2728,2825,2825,2825,2825,0,0,0,0,0,0,
2448,1789,1790,2448,2449,2547,2825,2825,2636,2825,2731,0,0,0,0,0
</chunk>
   <chunk x="-32" y="0" width="16" height="16">
0,0,0,0,0,0,0,0,0,0,0,0,0,2825,2825,2825,
0,0,0,0,0,0,0,0,0,0,0,0,0,0,2825,2825,
0,0,0,0,0,0,0,0,0,0,0,0,0,0,2825,2825,
0,0,0,0,0,0,0,0,0,0,0,0,0,0,0,0,
0,0,0,0,0,0,0,0,0,0,0,0,0,0,0,0,
0,0,0,0,0,0,0,0,0,0,0,0,0,0,0,0,
0,0,0,0,0,0,0,0,0,0,0,0,0,0,0,0,
0,0,0,0,0,0,0,0,0,0,0,0,0,0,0,0,
0,0,0,0,0,0,0,0,0,0,0,0,0,0,0,0,
0,0,0,0,0,0,0,0,0,0,0,0,0,0,0,0,
0,0,0,0,0,0,0,0,0,0,0,0,0,0,0,0,
0,0,0,0,0,0,0,0,0,0,0,0,0,0,0,0,
0,0,0,0,0,0,0,0,0,0,0,0,0,0,0,0,
0,0,0,0,0,0,0,0,0,0,0,0,0,0,0,0,
0,0,0,0,0,0,0,0,0,0,0,0,0,0,0,0,
0,0,0,0,0,0,0,0,0,0,0,0,0,0,0,0
</chunk>
   <chunk x="-16" y="0" width="16" height="16">
2825,2825,2825,2541,2543,2635,2542,2825,2825,2825,2825,2825,2825,2825,2825,2825,
2825,2542,2825,2825,2825,2825,2825,2825,2823,2825,2729,2825,2825,2825,2731,2825,
2825,2825,2825,2825,2825,2825,2825,2825,2825,2825,2825,2825,2825,2636,2825,2825,
0,0,0,0,0,0,0,0,0,0,0,0,0,0,0,0,
0,0,0,0,0,0,0,0,0,0,0,0,0,0,0,0,
0,0,0,0,0,0,0,0,0,0,0,0,0,0,0,0,
0,0,0,0,0,0,0,0,0,0,0,0,0,0,0,0,
0,0,0,0,0,0,0,0,0,0,0,0,0,0,0,0,
0,0,0,0,0,0,0,0,0,0,0,0,0,0,0,0,
0,0,0,0,0,0,0,0,0,0,0,0,0,0,0,0,
0,0,0,0,0,0,0,0,0,0,0,0,0,0,0,0,
0,0,0,0,0,0,0,0,0,0,0,0,0,0,0,0,
0,0,0,0,0,0,0,0,0,0,0,0,0,0,0,0,
0,0,0,0,0,0,0,0,0,0,0,0,0,0,0,0,
0,0,0,0,0,0,0,0,0,0,0,0,0,0,0,0,
0,0,0,0,0,0,0,0,0,0,0,0,0,0,0,0
</chunk>
   <chunk x="0" y="0" width="16" height="16">
2825,2825,2825,2825,2825,2825,2825,2825,2825,2825,0,0,0,0,0,0,
2825,2729,2825,2825,2637,2825,2825,2825,2635,2825,0,0,0,0,0,0,
2825,2825,2825,2825,2825,2825,0,2823,0,0,0,0,0,0,0,0,
0,0,0,0,0,0,0,0,0,0,0,0,0,0,0,0,
0,0,0,0,0,0,0,0,0,0,0,0,0,0,0,0,
0,0,0,0,0,0,0,0,0,0,0,0,0,0,0,0,
0,0,0,0,0,0,0,0,0,0,0,0,0,0,0,0,
0,0,0,0,0,0,0,0,0,0,0,0,0,0,0,0,
0,0,0,0,0,0,0,0,0,0,0,0,0,0,0,0,
0,0,0,0,0,0,0,0,0,0,0,0,0,0,0,0,
0,0,0,0,0,0,0,0,0,0,0,0,0,0,0,0,
0,0,0,0,0,0,0,0,0,0,0,0,0,0,0,0,
0,0,0,0,0,0,0,0,0,0,0,0,0,0,0,0,
0,0,0,0,0,0,0,0,0,0,0,0,0,0,0,0,
0,0,0,0,0,0,0,0,0,0,0,0,0,0,0,0,
0,0,0,0,0,0,0,0,0,0,0,0,0,0,0,0
</chunk>
  </data>
 </layer>
 <layer id="4" name="Objects" width="30" height="20">
  <data encoding="csv">
   <chunk x="-32" y="-16" width="16" height="16">
0,0,0,0,0,0,0,0,0,0,0,0,0,0,0,0,
0,0,0,0,0,0,0,0,0,0,0,0,0,0,0,0,
0,0,0,0,0,0,0,0,0,0,0,0,0,0,0,0,
0,0,0,0,0,0,0,0,0,0,0,0,0,0,0,0,
0,0,0,0,0,0,0,0,0,0,0,0,0,0,0,0,
0,0,0,0,0,0,0,0,0,0,0,0,0,0,227,0,
0,0,0,0,0,0,0,0,0,0,0,0,0,0,0,0,
0,0,0,0,0,0,0,0,0,0,0,0,0,0,0,0,
0,0,0,0,0,0,0,0,0,0,0,0,0,0,0,0,
0,0,0,0,0,0,0,0,0,0,0,0,334,428,0,0,
0,0,0,0,0,0,0,0,0,0,0,0,0,0,0,0,
0,0,0,0,0,0,0,0,0,0,0,0,0,0,0,0,
0,0,0,0,0,0,0,0,0,0,0,0,0,0,0,0,
0,0,0,0,0,0,0,0,0,0,0,0,0,0,0,0,
0,0,0,0,0,0,0,0,0,0,0,0,0,0,0,0,
0,0,0,0,0,0,0,0,0,0,0,0,0,0,0,0
</chunk>
   <chunk x="-16" y="-16" width="16" height="16">
0,0,0,0,0,0,0,0,0,0,0,0,0,0,0,0,
0,0,0,0,0,0,0,0,0,0,0,0,0,0,0,0,
0,0,0,0,0,0,0,0,0,0,0,0,0,0,0,0,
0,0,0,0,0,0,0,0,0,0,0,0,0,0,0,0,
0,0,0,0,0,0,0,0,0,0,0,227,0,0,0,0,
0,0,0,0,0,0,0,0,0,617,0,0,0,0,0,0,
0,0,0,0,0,0,0,0,0,0,0,0,0,0,0,0,
0,0,0,0,0,0,0,0,0,0,0,0,0,0,0,0,
0,0,227,0,0,0,0,0,0,0,0,0,0,0,0,0,
143,0,240,0,0,0,0,0,0,0,0,0,0,0,0,0,
0,0,0,0,0,0,0,0,0,0,0,0,0,0,617,0,
0,0,0,0,0,425,0,0,0,0,0,227,0,0,616,425,
0,0,0,0,0,0,0,0,0,0,0,0,0,0,0,0,
0,0,0,0,0,0,0,0,0,0,0,0,0,0,0,0,
0,0,0,0,0,0,0,0,0,0,0,0,0,0,0,0,
0,0,0,0,0,0,0,0,0,0,0,0,0,0,0,0
</chunk>
   <chunk x="0" y="-16" width="16" height="16">
0,0,0,0,0,0,0,0,0,0,0,0,0,0,0,0,
0,0,0,0,0,0,0,0,0,0,0,0,0,0,0,0,
0,0,0,0,0,0,0,0,0,0,0,0,0,0,0,0,
0,0,0,0,0,0,0,0,0,0,0,0,0,0,0,0,
0,0,0,0,0,127,0,622,0,0,0,0,0,0,0,0,
0,0,0,0,0,221,0,716,0,0,0,0,0,0,0,0,
227,0,0,0,0,0,0,0,0,0,0,0,0,0,0,0,
0,0,0,0,0,0,0,0,0,0,0,0,0,0,0,0,
0,0,0,0,0,0,0,0,0,0,0,0,0,0,0,0,
0,0,0,0,0,0,0,0,0,0,0,0,0,0,0,0,
0,0,0,0,0,0,0,0,0,0,0,0,0,0,0,0,
428,0,0,0,0,0,0,0,0,0,0,0,0,0,0,0,
0,0,0,0,0,0,0,0,0,0,0,0,0,0,0,0,
0,0,0,0,0,0,0,0,0,0,0,0,0,0,0,0,
0,0,0,0,0,0,0,0,0,0,0,0,0,0,0,0,
0,0,0,0,0,0,0,0,0,0,0,0,0,0,0,0
</chunk>
  </data>
 </layer>
</map>
